plasma/desktoptheme/Arc-Color/icons/antimicro.svg

<svg xmlns="http://www.w3.org/2000/svg" width="32" height="32" version="1">
 <defs>
  <style id="current-color-scheme" type="text/css">
   .ColorScheme-Background {color:#2f343f; } .ColorScheme-ButtonBackground { color:#444a58; } .ColorScheme-Highlight { color:#5c87cc; } .ColorScheme-Text { color:#d3dae3; } .ColorScheme-NegativeText { color:#f44336; } .ColorScheme-PositiveText { color:#4caf50; } .ColorScheme-NeutralText { color:#ff9800; }
  </style>
 </defs>
 <g id="antimicro">
  <rect style="opacity:0.001" width="32" height="32" x="0" y="0"/>
  <path style="fill:currentColor" class="ColorScheme-Text" d="M 15.958984 4 C 7.5870955 3.9999998 6.6128187 4.1309405 4.9316406 5.4765625 C 3.1321457 6.9168859 2.9343647 7.670873 2.3710938 15.302734 C 2.0934137 19.065059 1.9369193 22.506854 2.0234375 22.953125 C 2.2189968 23.961842 3.2904405 25.22412 4.3203125 25.658203 C 6.3171088 26.499841 8.0852303 25.802081 9.953125 23.4375 L 11.109375 21.974609 L 15.578125 21.974609 C 18.840929 21.98013 20.704818 22.099048 20.972656 22.310547 C 21.182392 22.476168 21.919342 23.165958 22.609375 23.964844 C 23.29941 24.76373 24.214023 25.572892 24.642578 25.761719 C 25.095408 25.961247 25.690149 26.031531 26.298828 25.988281 C 27.691365 25.876992 29.013427 25.116223 29.648438 23.736328 C 30.111593 22.718249 30.112206 22.522696 29.679688 16.667969 C 29.531923 14.667777 29.399904 13.040613 29.308594 12.041016 C 29.364748 10.999172 29.307039 10.259991 29.146484 9.3691406 C 28.766401 7.2812708 28.224206 6.5135866 27.111328 5.5917969 C 25.342949 4.1270605 24.460213 4 15.958984 4 z M 8.75 7 L 10.25 7 C 10.6655 7 11 7.3345 11 7.75 L 11 10 L 13.25 10 C 13.6655 10 14 10.3345 14 10.75 L 14 12.25 C 14 12.6655 13.6655 13 13.25 13 L 11 13 L 11 15.25 C 11 15.6655 10.6655 16 10.25 16 L 8.75 16 C 8.3345 16 8 15.6655 8 15.25 L 8 13 L 5.75 13 C 5.3345 13 5 12.6655 5 12.25 L 5 10.75 C 5 10.3345 5.3345 10 5.75 10 L 8 10 L 8 7.75 C 8 7.3345 8.3345 7 8.75 7 z M 22.5 7 A 1.5 1.5 0 0 1 24 8.5 A 1.5 1.5 0 0 1 22.5 10 A 1.5 1.5 0 0 1 21 8.5 A 1.5 1.5 0 0 1 22.5 7 z M 19.5 10 A 1.5 1.5 0 0 1 21 11.5 A 1.5 1.5 0 0 1 19.5 13 A 1.5 1.5 0 0 1 18 11.5 A 1.5 1.5 0 0 1 19.5 10 z M 25.5 10 A 1.5 1.5 0 0 1 27 11.5 A 1.5 1.5 0 0 1 25.5 13 A 1.5 1.5 0 0 1 24 11.5 A 1.5 1.5 0 0 1 25.5 10 z M 22.5 13 A 1.5 1.5 0 0 1 24 14.5 A 1.5 1.5 0 0 1 22.5 16 A 1.5 1.5 0 0 1 21 14.5 A 1.5 1.5 0 0 1 22.5 13 z"/>
 </g>
 <g id="22-22-antimicro" transform="translate(27,5)">
  <rect style="opacity:0.001" width="22" height="22" x="5" y="5"/>
  <path style="fill:currentColor" class="ColorScheme-Text" d="m 11.02499,9.0004268 v 0.002 c -2.4887079,0 -4.3597989,2.0010682 -4.4906099,4.4804682 l -0.498089,8.460613 c -0.315026,1.85 1.482765,3.017141 2.994391,0.994141 0.942579,-1.279 2.9689979,-3.9375 2.9689979,-3.9375 l 8.00067,0.04102 2.988531,4.021484 c 1.499025,2.012 3.186861,0.357874 2.996345,-1.003906 L 25.48909,13.58441 c 7.84e-4,-0.03462 0.0098,-0.06675 0.0098,-0.101562 -3e-5,-2.4824 -2.002332,-4.4824212 -4.490641,-4.4824212 z M 9.9995131,11.000426 H 11.99968 v 2 h 2.000168 v 2 H 11.99968 v 2 H 9.9995131 v -2 h -2.000167 v -2 h 2.000167 z m 11.0009209,0 c 0.552331,0 1.000083,0.447715 1.000083,1 0,0.552284 -0.447752,1 -1.000083,1 -0.552331,0 -1.000084,-0.447715 -1.000084,-1 0,-0.552285 0.447753,-1 1.000084,-1 z m -2.000168,2 c 0.552331,0 1.000084,0.447715 1.000084,1 0,0.552285 -0.447753,1 -1.000084,1 -0.552331,0 -1.000083,-0.447716 -1.000083,-1 0,-0.552285 0.447752,-1 1.000083,-1 z m 4.000335,0 c 0.552331,0 1.000084,0.447715 1.000084,1 0,0.552285 -0.447753,1 -1.000084,1 -0.552331,0 -1.000084,-0.447715 -1.000084,-1 0,-0.552285 0.447753,-1 1.000084,-1 z m -2.000167,2 c 0.552331,1e-6 1.000083,0.447716 1.000083,1 0,0.552284 -0.447752,1 -1.000083,1 -0.552331,0 -1.000084,-0.447715 -1.000084,-1 0,-0.552285 0.447753,-1 1.000084,-1 z"/>
 </g>
</svg>

<?xml version="1.0" encoding="UTF-8"?>
<svg width="32" height="32" version="1" xmlns="http://www.w3.org/2000/svg">
 <defs>
  <style id="current-color-scheme" type="text/css">.ColorScheme-Background {color:#2f343f; } .ColorScheme-ButtonBackground { color:#444a58; } .ColorScheme-Highlight { color:#5c87cc; } .ColorScheme-Text { color:#d3dae3; } .ColorScheme-NegativeText { color:#f44336; } .ColorScheme-PositiveText { color:#4caf50; } .ColorScheme-NeutralText { color:#ff9800; }</style>
 </defs>
 <g id="antimicro">
  <rect width="32" height="32" opacity=".001"/>
  <path class="ColorScheme-Text" d="m15.959 4c-8.3719-2e-7 -9.3462 0.13094-11.027 1.4766-1.7995 1.4403-1.9973 2.1943-2.5605 9.8262-0.27768 3.7623-0.43417 7.2041-0.34766 7.6504 0.19556 1.0087 1.267 2.271 2.2969 2.7051 1.9968 0.84164 3.7649 0.14388 5.6328-2.2207l1.1562-1.4629h4.4688c3.2628 0.005521 5.1267 0.12444 5.3945 0.33594 0.20974 0.16562 0.94669 0.85541 1.6367 1.6543 0.69004 0.79889 1.6046 1.608 2.0332 1.7969 0.45283 0.19953 1.0476 0.26981 1.6562 0.22656 1.3925-0.11129 2.7146-0.87206 3.3496-2.252 0.46316-1.0181 0.46377-1.2136 0.03125-7.0684-0.14776-2.0002-0.27978-3.6274-0.37109-4.627 0.056154-1.0418-0.001555-1.781-0.16211-2.6719-0.38008-2.0879-0.92228-2.8556-2.0352-3.7773-1.7684-1.4647-2.6511-1.5918-11.152-1.5918zm-7.209 3h1.5c0.4155 0 0.75 0.3345 0.75 0.75v2.25h2.25c0.4155 0 0.75 0.3345 0.75 0.75v1.5c0 0.4155-0.3345 0.75-0.75 0.75h-2.25v2.25c0 0.4155-0.3345 0.75-0.75 0.75h-1.5c-0.4155 0-0.75-0.3345-0.75-0.75v-2.25h-2.25c-0.4155 0-0.75-0.3345-0.75-0.75v-1.5c0-0.4155 0.3345-0.75 0.75-0.75h2.25v-2.25c0-0.4155 0.3345-0.75 0.75-0.75zm13.75 0a1.5 1.5 0 0 1 1.5 1.5 1.5 1.5 0 0 1-1.5 1.5 1.5 1.5 0 0 1-1.5-1.5 1.5 1.5 0 0 1 1.5-1.5zm-3 3a1.5 1.5 0 0 1 1.5 1.5 1.5 1.5 0 0 1-1.5 1.5 1.5 1.5 0 0 1-1.5-1.5 1.5 1.5 0 0 1 1.5-1.5zm6 0a1.5 1.5 0 0 1 1.5 1.5 1.5 1.5 0 0 1-1.5 1.5 1.5 1.5 0 0 1-1.5-1.5 1.5 1.5 0 0 1 1.5-1.5zm-3 3a1.5 1.5 0 0 1 1.5 1.5 1.5 1.5 0 0 1-1.5 1.5 1.5 1.5 0 0 1-1.5-1.5 1.5 1.5 0 0 1 1.5-1.5z" fill="currentColor"/>
 </g>
 <g id="22-22-antimicro" transform="translate(27,5)">
  <rect x="5" y="5" width="22" height="22" opacity=".001"/>
  <path class="ColorScheme-Text" d="m11.025 9.0004v2e-3c-2.4887 0-4.3598 2.0011-4.4906 4.4805l-0.49809 8.4606c-0.31503 1.85 1.4828 3.0171 2.9944 0.99414 0.94258-1.279 2.969-3.9375 2.969-3.9375l8.0007 0.04102 2.9885 4.0215c1.499 2.012 3.1869 0.35787 2.9963-1.0039l-0.49614-8.4743c7.84e-4 -0.03462 0.0098-0.06675 0.0098-0.10156-3e-5 -2.4824-2.0023-4.4824-4.4906-4.4824zm-1.0255 2h2.0002v2h2.0002v2h-2.0002v2h-2.0002v-2h-2.0002v-2h2.0002zm11.001 0c0.55233 0 1.0001 0.44772 1.0001 1 0 0.55228-0.44775 1-1.0001 1s-1.0001-0.44772-1.0001-1 0.44775-1 1.0001-1zm-2.0002 2c0.55233 0 1.0001 0.44772 1.0001 1s-0.44775 1-1.0001 1-1.0001-0.44772-1.0001-1c0-0.55228 0.44775-1 1.0001-1zm4.0003 0c0.55233 0 1.0001 0.44772 1.0001 1s-0.44775 1-1.0001 1-1.0001-0.44772-1.0001-1 0.44775-1 1.0001-1zm-2.0002 2c0.55233 1e-6 1.0001 0.44772 1.0001 1s-0.44775 1-1.0001 1-1.0001-0.44772-1.0001-1 0.44775-1 1.0001-1z" fill="currentColor"/>
 </g>
</svg>
